app/dist/common/images/noble-plc.svg

<svg height="18" viewBox="0 0 18 18" width="18" xmlns="http://www.w3.org/2000/svg"><path d="m0 0h18v18h-18z" fill="#f0f3fa"/><path d="m9 5.33c-.13 0-.4.1-.49.14l-4.33 1.76c-.56.22-.94.95-.94 1.77 0 .81.38 1.55.94 1.77l4.33 1.76c.1.03.36.14.49.14s.4-.1.49-.14l4.33-1.76c.56-.22.94-.95.94-1.77 0-.81-.38-1.55-.94-1.77l-4.33-1.76a1.6 1.6 0 0 0 -.49-.14z" fill="#002f6c"/><g fill="#ffd100"><path d="m9 13c-.18 0-.52-.14-.56-.16l-4.33-1.74c-.65-.28-1.11-1.14-1.11-2.1s.46-1.82 1.11-2.09l4.33-1.75c.04-.02.37-.16.56-.16.18 0 .52.14.56.16l4.33 1.75c.65.27 1.11 1.12 1.11 2.09 0 .96-.46 1.82-1.11 2.09l-4.33 1.75c-.04.02-.37.16-.56.16zm0-7.67c-.13 0-.4.1-.49.14l-4.33 1.76c-.56.22-.94.95-.94 1.77 0 .81.38 1.55.94 1.77l4.33 1.76c.1.03.36.14.49.14s.4-.1.49-.14l4.33-1.76c.56-.22.94-.95.94-1.77 0-.81-.38-1.55-.94-1.77l-4.33-1.76a1.6 1.6 0 0 0 -.49-.14z"/><path d="m7 11v-4h1l2 2.33v-2.33h1v4h-1l-2-2.33v2.33z"/></g></svg>

<!-- by TradingView --><svg width="18" height="18" viewBox="0 0 18 18" xmlns="http://www.w3.org/2000/svg"><path fill="#F0F3FA" d="M0 0h18v18H0z"/><path d="M9 5.33c-.13 0-.4.1-.49.14L4.18 7.23c-.56.22-.94.95-.94 1.77 0 .81.38 1.55.94 1.77l4.33 1.76c.1.03.36.14.49.14s.4-.1.49-.14l4.33-1.76c.56-.22.94-.95.94-1.77 0-.81-.38-1.55-.94-1.77L9.49 5.47A1.6 1.6 0 0 0 9 5.33Z" fill="#002F6C"/><path d="M9 13c-.18 0-.52-.14-.56-.16L4.11 11.1C3.46 10.82 3 9.96 3 9c0-.96.46-1.82 1.11-2.09l4.33-1.75C8.48 5.14 8.81 5 9 5c.18 0 .52.14.56.16l4.33 1.75C14.54 7.18 15 8.03 15 9c0 .96-.46 1.82-1.11 2.09l-4.33 1.75c-.04.02-.37.16-.56.16Zm0-7.67c-.13 0-.4.1-.49.14L4.18 7.23c-.56.22-.94.95-.94 1.77 0 .81.38 1.55.94 1.77l4.33 1.76c.1.03.36.14.49.14s.4-.1.49-.14l4.33-1.76c.56-.22.94-.95.94-1.77 0-.81-.38-1.55-.94-1.77L9.49 5.47A1.6 1.6 0 0 0 9 5.33Z" fill="#FFD100"/><path d="M7 11V7h1l2 2.33V7h1v4h-1L8 8.67V11H7Z" fill="#FFD100"/></svg>
